src/extras-openmoji/brand/E044.svg

<svg id="emoji" viewBox="0 0 72 72" xmlns="http://www.w3.org/2000/svg">
  <g id="grid">
    <path fill="#b3b3b3" d="M68,4V68H4V4H68m4-4H0V72H72V0Z"/>
    <path fill="none" stroke="#00a5ff" stroke-miterlimit="10" stroke-width="0.1" d="M12.923,10.9583H59.0769A1.9231,1.9231,0,0,1,61,12.8814V59.0352a1.9231,1.9231,0,0,1-1.9231,1.9231H12.9231A1.9231,1.9231,0,0,1,11,59.0352V12.8813A1.923,1.923,0,0,1,12.923,10.9583Z"/>
    <rect x="16" y="4" rx="2.2537" width="40" height="64" fill="none" stroke="#00a5ff" stroke-miterlimit="10" stroke-width="0.1"/>
    <rect x="16" y="4" rx="2.2537" width="40" height="64" transform="translate(72) rotate(90)" fill="none" stroke="#00a5ff" stroke-miterlimit="10" stroke-width="0.1"/>
    <circle cx="36" cy="36" r="29" fill="none" stroke="#00a5ff" stroke-miterlimit="10" stroke-width="0.1"/>
  </g>
  <g id="color">
    <path fill="#ea5a47" stroke="none" d="M 63.873874,21.905712 C 63.204809,19.386148 61.233657,17.402098 58.73029,16.728737 54.19329,15.504988 36,15.504988 36,15.504988 c 0,0 -18.193191,0 -22.730324,1.223749 -2.503136,0.673361 -4.474637,2.657411 -5.143644,5.176975 -1.215727,4.566519 -1.215727,14.094287 -1.215727,14.094287 0,0 0,9.527636 1.215727,14.094587 0.669007,2.519265 2.640508,4.503295 5.143644,5.17695 C 17.806809,56.495012 36,56.495012 36,56.495012 c 0,0 18.19329,0 22.73029,-1.223476 2.503367,-0.673655 4.474519,-2.657685 5.143584,-5.17695 1.215821,-4.566951 1.215821,-14.094587 1.215821,-14.094587 0,0 0,-9.527768 -1.215821,-14.094287"/>
    <path fill="#ffffff" stroke="none" d="M 30.049835,44.650447 45.255811,36.000396 30.049835,27.349517 Z"/>
  </g>
  <g id="hair"/>
  <g id="skin"/>
  <g id="skin-shadow"/>
  <g id="line">
    <path fill="none" stroke="#000000" stroke-miterlimit="10" stroke-width="2" d="M 63.873874,21.905712 C 63.204809,19.386148 61.233657,17.402098 58.73029,16.728737 54.19329,15.504988 36,15.504988 36,15.504988 c 0,0 -18.193191,0 -22.730324,1.223749 -2.503136,0.673361 -4.474637,2.657411 -5.143644,5.176975 -1.215727,4.566519 -1.215727,14.094287 -1.215727,14.094287 0,0 0,9.527636 1.215727,14.094587 0.669007,2.519265 2.640508,4.503295 5.143644,5.17695 C 17.806809,56.495012 36,56.495012 36,56.495012 c 0,0 18.19329,0 22.73029,-1.223476 2.503367,-0.673655 4.474519,-2.657685 5.143584,-5.17695 1.215821,-4.566951 1.215821,-14.094587 1.215821,-14.094587 0,0 0,-9.527768 -1.215821,-14.094287"/>
    <path fill="none" stroke="#000000" stroke-linecap="round" stroke-linejoin="round" stroke-miterlimit="10" stroke-width="2" d="M 30.049835,44.650447 45.255811,36.000396 30.049835,27.349517 Z"/>
  </g>
</svg>

<svg viewBox="0 0 72 72" xmlns="http://www.w3.org/2000/svg"><path fill="#b3b3b3" d="M68 4v64H4V4h64m4-4H0v72h72V0z"/><path fill="none" stroke="#00a5ff" stroke-miterlimit="10" stroke-width=".1" d="M12.923 10.958h46.154A1.923 1.923 0 0161 12.881v46.154a1.923 1.923 0 01-1.923 1.923H12.923A1.923 1.923 0 0111 59.035V12.881a1.923 1.923 0 011.923-1.923z"/><rect x="16" y="4" rx="2.254" width="40" height="64" fill="none" stroke="#00a5ff" stroke-miterlimit="10" stroke-width=".1"/><rect x="16" y="4" rx="2.254" width="40" height="64" transform="rotate(90 36 36)" fill="none" stroke="#00a5ff" stroke-miterlimit="10" stroke-width=".1"/><circle cx="36" cy="36" r="29" fill="none" stroke="#00a5ff" stroke-miterlimit="10" stroke-width=".1"/><g stroke-linecap="round" stroke-miterlimit="10" stroke-width="6" stroke="#fff" fill="none" stroke-linejoin="round"><path d="M63.874 21.906a7.31 7.31 0 00-5.144-5.177C54.193 15.505 36 15.505 36 15.505s-18.193 0-22.73 1.224a7.31 7.31 0 00-5.144 5.177C6.91 26.472 6.91 36 6.91 36s0 9.528 1.216 14.095a7.31 7.31 0 005.144 5.177C17.807 56.495 36 56.495 36 56.495s18.193 0 22.73-1.223a7.31 7.31 0 005.144-5.177C65.09 45.528 65.09 36 65.09 36s0-9.528-1.216-14.094"/><path d="M30.05 44.65L45.256 36 30.05 27.35z"/></g><path fill="#ea5a47" d="M63.874 21.906a7.31 7.31 0 00-5.144-5.177C54.193 15.505 36 15.505 36 15.505s-18.193 0-22.73 1.224a7.31 7.31 0 00-5.144 5.177C6.91 26.472 6.91 36 6.91 36s0 9.528 1.216 14.095a7.31 7.31 0 005.144 5.177C17.807 56.495 36 56.495 36 56.495s18.193 0 22.73-1.223a7.31 7.31 0 005.144-5.177C65.09 45.528 65.09 36 65.09 36s0-9.528-1.216-14.094"/><path fill="#fff" d="M30.05 44.65L45.256 36 30.05 27.35z"/><g fill="none" stroke="#000" stroke-miterlimit="10" stroke-width="2"><path d="M63.874 21.906a7.31 7.31 0 00-5.144-5.177C54.193 15.505 36 15.505 36 15.505s-18.193 0-22.73 1.224a7.31 7.31 0 00-5.144 5.177C6.91 26.472 6.91 36 6.91 36s0 9.528 1.216 14.095a7.31 7.31 0 005.144 5.177C17.807 56.495 36 56.495 36 56.495s18.193 0 22.73-1.223a7.31 7.31 0 005.144-5.177C65.09 45.528 65.09 36 65.09 36s0-9.528-1.216-14.094"/><path stroke-linecap="round" stroke-linejoin="round" d="M30.05 44.65L45.256 36 30.05 27.35z"/></g></svg>
